!!!OTL: Die beiden Waisenkinder Es waren zwei Waisenkinder,
!!!ARE: Europa, Mitteleuropa, Deutschland (BRD), Westfalen
!!!YOR: 5, S. 310
!!    ????
!!!SCT: Q0118B
!!!YEM: Copyright 1995, estate of Helmut Schaffrath.
**kern
*ICvox
*Ivox
*M6/8
*k[f#]
*G:
{8d
=1
8g
8g
8g
8g
8f#
8g
=2
8a
8a
4.r}
{8d
=3
8d
8d
8dd
4dd
8cc
=4
4.b
4r}
{8dd
=5
8b
8b
8b
8b
8cc
8dd
=6
4.ee
8ee
8dd}
{8cc
=7
8dd
8dd
8dd
4dd
8cc
=8
4.b
4r}
==
!!!AGN: Ballade, Waise, boese Stiefmutter, Klage am Grab, Geist
!!!ONB: ESAC (Essen Associative Code) Database: BALLADE
!!!AMT: compound duple
!!!AIN: vox
!!!EED: Helmut Schaffrath
!!!EEV: 1.0
*-
